assets/Money bag/Flat/money_bag_flat.svg

<svg width="32" height="32" viewBox="0 0 32 32" fill="none" xmlns="http://www.w3.org/2000/svg">
<path fill-rule="evenodd" clip-rule="evenodd" d="M17.44 3.385C17.77 3.765 18.33 3.835 18.74 3.545C19.54 2.975 20.58 3.835 20.17 4.715L17.75 7.485H13.88L11.44 4.685C11.03 3.795 12.07 2.935 12.87 3.505L12.94 3.555C13.35 3.845 13.91 3.765 14.23 3.385L15.1 2.345C15.48 1.885 16.19 1.885 16.57 2.345L17.44 3.385ZM4 21.2249C4 14.6849 9.3 9.38489 15.84 9.38489C22.38 9.38489 27.68 14.6849 27.67 21.2249C27.67 26.0549 23.75 29.9749 18.92 29.9749H12.75C7.92 29.9749 4 26.0549 4 21.2249Z" fill="#F3C07B"/>
<path fill-rule="evenodd" clip-rule="evenodd" d="M14.12 7.46484H17.56C18.17 7.46484 18.67 7.96484 18.67 8.57484C18.67 9.18484 18.17 9.68484 17.56 9.68484H14.12C13.51 9.68484 13.01 9.18484 13.01 8.57484C13.01 7.96484 13.51 7.46484 14.12 7.46484ZM15.8401 19.3449H15.9101C17.4101 19.3849 18.6101 20.6049 18.6101 22.1049C18.6101 23.3849 17.7401 24.4549 16.5601 24.7749V25.8949C16.5601 26.2949 16.2401 26.6149 15.8401 26.6149C15.4401 26.6149 15.1201 26.2949 15.1201 25.8949V24.7749C13.9401 24.4549 13.0701 23.3849 13.0701 22.1049C13.0701 21.7049 13.3901 21.3849 13.7901 21.3849C14.1901 21.3849 14.5101 21.7049 14.5101 22.1049C14.5101 22.8449 15.1001 23.4349 15.8301 23.4349C16.5601 23.4349 17.1601 22.8349 17.1601 22.1049C17.1601 21.3749 16.5601 20.7749 15.8301 20.7749H15.7601C14.2701 20.7349 13.0701 19.5149 13.0701 18.0149C13.0701 16.7349 13.9401 15.6649 15.1201 15.3449V14.2249C15.1201 13.8249 15.4401 13.5049 15.8401 13.5049C16.2401 13.5049 16.5601 13.8249 16.5601 14.2249V15.3449C17.7401 15.6649 18.6101 16.7349 18.6101 18.0149C18.6101 18.4149 18.2901 18.7349 17.8901 18.7349C17.4901 18.7349 17.1701 18.4149 17.1701 18.0149C17.1701 17.2849 16.5701 16.6849 15.8401 16.6849C15.1101 16.6849 14.5101 17.2849 14.5101 18.0149C14.5101 18.7449 15.1101 19.3449 15.8401 19.3449Z" fill="#8C5543"/>
</svg>

<svg xmlns="http://www.w3.org/2000/svg" width="32" height="32" fill="none"><path fill="#F3C07B" fill-rule="evenodd" d="M17.44 3.385c.33.38.89.45 1.3.16.8-.57 1.84.29 1.43 1.17l-2.42 2.77h-3.87l-2.44-2.8c-.41-.89.63-1.75 1.43-1.18l.07.05c.41.29.97.21 1.29-.17l.87-1.04a.955.955 0 0 1 1.47 0l.87 1.04ZM4 21.225c0-6.54 5.3-11.84 11.84-11.84s11.84 5.3 11.83 11.84c0 4.83-3.92 8.75-8.75 8.75h-6.17c-4.83 0-8.75-3.92-8.75-8.75Z" clip-rule="evenodd"/><path fill="#8C5543" fill-rule="evenodd" d="M14.12 7.465h3.44c.61 0 1.11.5 1.11 1.11 0 .61-.5 1.11-1.11 1.11h-3.44c-.61 0-1.11-.5-1.11-1.11 0-.61.5-1.11 1.11-1.11Zm1.72 11.88h.07c1.5.04 2.7 1.26 2.7 2.76 0 1.28-.87 2.35-2.05 2.67v1.12c0 .4-.32.72-.72.72-.4 0-.72-.32-.72-.72v-1.12a2.769 2.769 0 0 1-2.05-2.67c0-.4.32-.72.72-.72.4 0 .72.32.72.72 0 .74.59 1.33 1.32 1.33.73 0 1.33-.6 1.33-1.33 0-.73-.6-1.33-1.33-1.33h-.07a2.765 2.765 0 0 1-2.69-2.76c0-1.28.87-2.35 2.05-2.67v-1.12c0-.4.32-.72.72-.72.4 0 .72.32.72.72v1.12c1.18.32 2.05 1.39 2.05 2.67 0 .4-.32.72-.72.72-.4 0-.72-.32-.72-.72 0-.73-.6-1.33-1.33-1.33-.73 0-1.33.6-1.33 1.33 0 .73.6 1.33 1.33 1.33Z" clip-rule="evenodd"/></svg>
